!!!SOCIAL_FUNCTION:	songs of the drum-presentation ceremony
!!!PDT:	1913
!!!OTL: No_54_Song_of_Departure.krn
!!!REG: Great_Lakes
!!!LANG: Non-Tone
!!!LING_GROUP: Algonquin
**kern	**kern
*staff2	*staff1
=1-	=1-
*clefF4	*clefF4
*k[b-e-a-d-g-c-]	*k[b-e-a-d-g-c-]
*M3/4	*M3/4
.	e-q/
8GG-/L	4..e-\
8GG-/J	.
8GG-/L	.
8GG-/J	.
.	16d-\
8GG-/L	8e-\L
8GG-/J	8d-\J
=2	=2
8GG-/L	16B-\LK
.	[8.B-\J
8GG-/J	.
8GG-/L	4B-\_
8GG-/J	.
8GG-/L	8B-\L]
8GG-/J	8E-\J
=3	=3
.	e-q/
2.r	4..e-\
.	16d-\
.	8e-\L
.	8d-\J
=4||	=4||
*M2/4	*M2/4
2r	16B-\LK
.	[8.B-\J
.	8B-\L]
.	16c-\L
.	16B-\JJ
=5	=5
2r	8A-\L
.	8G-\J
.	16E-\LK
.	8.E-\J
=6	=6
.	B-q/
2r	4.B-\
.	16c-\LL
.	16B-\JJ
=7||	=7||
*M3/4	*M3/4
2.r	8A-\L
.	8G-\J
.	16E-\LK
.	[8.E-\J
.	8.E-\L]
.	16D-\Jk
=8||	=8||
*M2/4	*M2/4
2r	8E-\L
.	8D-\J
.	16BB-/LK
.	8.BB-/J
=9	=9
.	E-q/
2r	4..E-\
.	16D-\
=10	=10
2r	8E-\L
.	8D-\J
.	12BB-/L
.	12BB-/
.	12BB-/J
=11	=11
2r	[2BB-/
=12||	=12||
*M3/4	*M3/4
2.r	4..BB-/]
.	16E-\
.	8.B-\L
.	16B-\Jk
=13	=13
2.r	4..e-\
.	16d-\
.	4d-\
=14||	=14||
*M2/4	*M2/4
2r	16B-\LK
.	8A-\
.	16A-\Jk
.	16F\LK
.	8.E-\J
=15	=15
.	B-q/
2r	4.B-\
.	16c-\LL
.	16B-\JJ
=16||	=16||
*M3/4	*M3/4
2.r	8A-\L
.	8G-\J
.	16E-\LK
.	8.E-\J
.	8.E-\L
.	16D-\Jk
=17||	=17||
*M2/4	*M2/4
2r	8E-\L
.	8D-\J
.	16BB-/LK
.	8.BB-/J
=18	=18
.	E-q/
2r	4..E-\
.	16D-\
=19	=19
2r	8E-\L
.	8D-\J
.	12BB-/L
.	12BB-/
.	12BB-/J
=20	=20
2r	[2BB-/
=21	=21
2r	2BB-/]
==	==
*-	*-
